X: 1
T:The Wind that shakes the Barley
M:C|
L:1/8
S:Ireland
R:Reel
K:D
|A2 AB AF ED|B2 BA Bc dB|A2 AB AF ED|gf ed Bc dB|!|
A2 AB AF ED|B2 BA Bc dB|A2 AB AF ED|gf ed Bc de|!|
f2 fd g2 ge|f2 fd Bc de|f2 fd g2 ge|af ed Bc de|!|
f2 fd g2 ge|f2 fd Bc de|de fg af ba|gf ed Bc dB||
